!!!COM: Claude Goudimel
!!!OMD: Psalm 75: O Seigneur, loué sera
**kern	**kern	**kern	**kern
*part4	*part3	*part2	*part1
*staff4	*staff3	*staff2	*staff1
*I"bassus	*I"tenor	*I"contra	*I"superius
*clefF3	*clefC3	*clefC2	*clefG2
*k[b-]	*k[b-]	*k[b-]	*k[b-]
!!LO:TX:omd:t=
*M2/2	*M2/2	*M2/2	*M2/2
*met(c|)	*met(c|)	*met(c|)	*met(c|)
=1	=1	=1	=1
1F	1c	1f	1a
=2	=2	=2	=2
1G	1B-	1d	1g
=3	=3	=3	=3
2D	2A	2d	2f
2BB-	2d	2f	2b-
=4	=4	=4	=4
1F	1c	1f	1a
=5	=5	=5	=5
1G	1B-	1d	1g
=6	=6	=6	=6
2D	2A	2d	2f
2BB-	2d	2f	2b-
=7	=7	=7	=7
1F	1c	1f	1a
=8	=8	=8	=8
1G	1B-	1d	1g
=9	=9	=9	=9
2D	1A	2d	1f
2F	.	2c	.
=10	=10	=10	=10
1C	2G	1c	2e
.	2G	.	2e
=11	=11	=11	=11
1F	1F	1c	1f
=12	=12	=12	=12
1r	1r	1r	1r
=13	=13	=13	=13
1F	1F	1A	1c
=14	=14	=14	=14
1F	1A	1c	1f
=15	=15	=15	=15
2C	2G	2c	2e
2C	2c	2e	2g
=16	=16	=16	=16
2F	2c	2f	2a
2G	2Bn	2d	2g
=17	=17	=17	=17
1C	1c	1e	1g
=18	=18	=18	=18
2BB-	2d	2f	2b-
2BB-	2d	2f	2b-
=19	=19	=19	=19
2F	2c	2f	2a
2F	2A	2f	2a
=20	=20	=20	=20
2G	2B-	2d	2g
2G	2B-	2d	2g
=21	=21	=21	=21
1D	1A	1d	1f#X
=22	=22	=22	=22
1r	1r	1r	1r
=23	=23	=23	=23
1F	1c	1f	1a
=24	=24	=24	=24
1G	1B-	1d	1g
=25	=25	=25	=25
2D	2A	2d	2f
2C	2c	2G	2g
=26	=26	=26	=26
2E-X	2B-	2G	2g
2F	2A	2c	2f
=27	=27	=27	=27
1C	1G	1c	1e
=28	=28	=28	=28
1r	1r	1r	1r
=29	=29	=29	=29
1F	1A	1c	1f
=30	=30	=30	=30
1F	1c	1f	1a
=31	=31	=31	=31
2D	2F	2A	2f
2BB-	2B-	2d	[2g
=32	=32	=32	=32
1F	1A	1c	2g]
.	.	.	[2f
=33	=33	=33	=33
1C	1G	1c	2f]
.	.	.	2e
=34	=34	=34	=34
1F;	1F;	1c;	1f;
==	==	==	==
*-	*-	*-	*-
!!!software: music21 v.9.7.1
!!!software: music21 v.9.1.0
!!!RDF**kern: > = above
!!!RDF**kern: < = below
